src/lib/packages/icons/src/assets/filled/bookmark-heart.svg

<svg width="24" height="24" viewBox="0 0 24 24" fill="none" xmlns="http://www.w3.org/2000/svg">
<path d="M16 3H8C6 3 5 4 5 6V21L12 17L19 21V6C19 4 18 3 16 3ZM15.4341 9.854C14.9781 12.167 12 13.5 12 13.5C12 13.5 9.02192 12.168 8.56592 9.854C8.28592 8.435 8.89788 7.007 10.4529 7C11.6109 6.995 12 8.14294 12 8.14294C12 8.14294 12.3891 6.995 13.5471 7C15.1051 7.007 15.7141 8.435 15.4341 9.854Z" fill="currentColor"/>
</svg>

<svg xmlns="http://www.w3.org/2000/svg" width="24" height="24" fill="none"><path fill="currentColor" d="M16 3H8C6 3 5 4 5 6v15l7-4 7 4V6c0-2-1-3-3-3Zm-.566 6.854C14.978 12.167 12 13.5 12 13.5s-2.978-1.332-3.434-3.646c-.28-1.419.332-2.847 1.887-2.854C11.61 6.995 12 8.143 12 8.143S12.39 6.995 13.547 7c1.558.007 2.167 1.435 1.887 2.854Z"/></svg>
